static/assets/img/logos/brand/time.svg

<svg fill="none" height="36" viewBox="0 0 110 36" width="110" xmlns="http://www.w3.org/2000/svg"><path clip-rule="evenodd" d="m11.6172 2.5242-3.17828-.01403h-4.92581c-.34181 0-2.98349.02572-2.98349.02572l-.047246 4.28145-.482374.01344.0291641-4.81165-.0174985-1.9770413c1.6786844.0818403 7.7448144.1356233 14.0390344.1356233 7.3394 0 12.0675-.074241 13.9235-.1297763l-.0222 2.1904143.0391 4.86718-.5005-.00526c.0035-.39751-.0816-2.0127-.0769-2.17053.0023-.05905-.105-2.22841-.1202-2.39092l-2.1068-.02923-6.314-.00117-2.4195.00935.0035 30.02563c0 .0409.0455 1.9683.0537 2.3681.2432.0357 2.5833.1976 3.0062.1976l.1651-.0023v.8184c-.1254 0-.2818.0134-.4124.0122-1.3293-.0146-3.4752-.1747-5.0005-.1747-1.5008 0-3.6175.1484-5.1836.1724-.04142.0012-.36222-.0058-.48296-.0123l-.0035-.871c.01516 0 .11199-.0023.25839-.007.66144-.0275 2.28997-.1368 2.71517-.1724l.0653-.0106zm28.3557 33.436c-1.2319 0-3.3265-.2057-4.8949-.2057-1.5516 0-3.6572.2057-5.1726.2057-.1289 0-.3563-.0286-.4812-.0286v-.8529c.2993-.007 1.6396-.1292 2.0112-.1567.4369-.0321.8405-.0537 1.0201-.1128l.0094-2.6201c.0163-5.509.0484-21.081-.0024-28.12688-.0058-.74358-.0105-2.62825-.0105-2.90067-.284-.02806-.6806-.06605-.9653-.10405-.3552-.01929-1.8192-.159005-2.0689-.173619l-.0093-.8528976c1.4524 0 3.6082.1484816 5.358.1484816 1.6717 0 3.9395-.1484816 5.6573-.1484816l-.0035.8891396c-.2724.018706-.935.060212-.9572.062551-.5005.047936-1.9009.206946-2.2451.231496v2.74108c-.0011 6.30935-.0075 22.81545-.0105 28.37365v1.8016c0 .425.0024.6793.0065.6951.0087.0321.8865.114 1.0889.1268.3873.0456 1.9809.1152 2.0293.1269h.1073l-.0012.8529c-.1044-.0006-.3587.028-.4654.028zm11.0584-23.9635s-.7932 4.3937-1.9376 10.5925c-.6067 3.3491-1.8619 11.7237-1.9465 12.2761.7239.1088 2.1494.2251 2.5373.2122.0893 0 .2421.0035.3535.0035l-.0012.8483c-.1851.0151-.3707.0227-.5564.0228-1.3731-.0287-2.3623-.1339-3.8439-.1339-.3896 0-2.4503.1076-3.1759.1327-.3028.0134-.7309-.0193-.8131-.0158l.0011-.8406c.0706 0 .2147-.0298.3063-.0322.6562-.0298 1.667-.1315 2.5232-.2431.07-.4122.8102-4.541 1.0453-6.0037.9093-4.8397 3.5901-21.01081 3.9255-23.19187.2333-1.86757.4557-3.7365.6672-5.6066777.7105.0122762 1.9365-.01578379 1.9365-.01578379s2.3722 7.38730149 2.7578 8.46876149c.3855 1.08206 7.6352 19.77507 7.6352 19.77507s3.4028-8.0537 6.4353-16.6967c.6142-1.74962 1.4197-4.03181 2.0129-5.87907.8679-2.70367 1.8228-5.66923 1.8228-5.66923h1.8659s.4625 3.30169.6264 4.77132c.476 4.2791 3.5942 21.66498 4.689 27.38278.2724 1.4304.4795 2.6691.4795 2.6691.3225.0228 1.5824.1485 2.3296.2099.1563.0135.5751.0363.6708.0363l.0046.8622s-.3406.017-.5261.017c-1.6722-.0106-4.2766-.1608-5.8841-.1608-1.4296 0-2.805.1233-4.2346.1543-.2438.0047-.4888-.007-.7373-.007v-.8517c.0994-.0069.199-.0096.2986-.0082.6982-.0333 2.5496-.2157 2.7333-.2239.0012-.3127-.1003-1.3965-.2508-2.5026-.1038-.781-.28-2.1156-.4696-3.4308-.4065-2.5576-2.2911-13.153-2.8516-16.0946-.0922-.4823-.1493-.753-.1493-.753s-5.8375 15.0091-7.0152 17.9664c-.1137.29-.196.4946-.2234.5618-1.1257 2.8487-2.0689 5.3881-2.0689 5.3881l-1.6612-.0106-9.0951-23.4333zm57.7557-4.94261-.482.00117-.005-.25254c-.05-.6255-.155-2.39559-.288-3.88451-.012-.1327-.033-.23676-.033-.23676-.289-.00935-1.464-.04735-1.483-.06664-.019-.01754-.955-.0304-.975-.04033-.01-.00468-3.081-.02339-6.2482-.02572-2.1611-.00234-4.2883.01169-5.5925.01169-.3202-.00117-1.4699.04384-1.4699.04384l-.007 14.12861 9.0516.031c.043 0 2.398-.0736 2.455-.0725.142.0012 1.759-.0929 1.82-.1146 0 0 .024-.1479.063-.256.131-.8546.297-1.6672.338-2.3009 0 0 .042-.2718.044-.4554l.515-.0111c0 .0661.027.2286.024.4595-.004.8517-.066 2.6195-.063 3.7793.002 1.6684.046 3.1754.057 3.9301.007.2157-.007.5594-.007.5594h-.565c-.011-.0801-.02-.1619-.031-.249-.087-.8769-.198-1.7514-.332-2.6224-.004-.0503-.033-.2274-.045-.3402-.485-.0258-.97-.0449-1.456-.0573-.177-.007-2.383-.0228-4.8669-.0263-1.0172-.0012-2.8446.0467-3.6192.0444-.9082 0-2.4072.0585-3.386.0935l.0105 12.8128.0385 1.6497 5.4957.0958 7.8264-.007c.036 0 1.792-.0707 2.34-.0596.116.0023.351-.0181.351-.0181.052-.4145.116-1.2528.181-2.0531.005-.0947.2-2.2196.2-2.7913l.482-.0059c0 .5402-.103 7.2523-.103 7.2523-.882 0-3.589-.0023-6.932-.0514-2.029-.031-4.2882-.0287-6.5164-.0614-1.8082-.0263-3.5965-.0912-5.2233-.0877-2.3185.0023-4.5886.1543-5.4706.1555-.2018 0-.5582-.0135-.6357-.0135v-.8435h.1627c.5436-.0035 2.1418-.0982 2.9759-.2537 0-.1701.056-2.2594.056-2.3027l-.0047-27.71942c0-1.2814-.0227-3.41802-.0227-3.60743-.4719-.05612-.6393-.08535-.7385-.10639-.4998-.07073-1.4879-.157251-2.0164-.194664-.1324.001741-.2648-.008433-.3954-.030399 0 0-.0024-.8295167-.007-.8412083.1195.0070149.3669-.0116912.8102-.0087683.9332.0040921 2.6498.1420536 4.7484.1443916 1.3183.001169 3.4449-.063133 4.9684-.083009 2.1728 0 3.8223-.021044 5.9261-.0339047 3.435-.0233831 6.368-.047937 7.515-.05378277.335-.00116915.519-.00292128.519-.00292128 0 .06664175-.002.14205175-.002.22798475 0 .266567-.012.734812-.007 1.308871.012 1.78588.055 4.59594.055 5.51314z" fill="#adb5bd" fill-rule="evenodd"/></svg>

<svg width="110" height="36" viewBox="0 0 110 36" fill="none" xmlns="http://www.w3.org/2000/svg">
<path fill-rule="evenodd" clip-rule="evenodd" d="M11.6172 2.5242L8.43892 2.51017H3.51311C3.1713 2.51017 0.52962 2.53589 0.52962 2.53589L0.482374 6.81734L0 6.83078L0.0291641 2.01913L0.0116656 0.0420887C1.69035 0.123929 7.75648 0.177712 14.0507 0.177712C21.3901 0.177712 26.1182 0.103471 27.9742 0.0479357L27.952 2.23835L27.9911 7.10553L27.4906 7.10027C27.4941 6.70276 27.409 5.08757 27.4137 4.92974C27.416 4.87069 27.3087 2.70133 27.2935 2.53882L25.1867 2.50959L18.8727 2.50842L16.4532 2.51777L16.4567 32.5434C16.4567 32.5843 16.5022 34.5117 16.5104 34.9115C16.7536 34.9472 19.0937 35.1091 19.5166 35.1091L19.6817 35.1068V35.9252C19.5563 35.9252 19.3999 35.9386 19.2693 35.9374C17.94 35.9228 15.7941 35.7627 14.2688 35.7627C12.768 35.7627 10.6513 35.9111 9.0852 35.9351C9.04378 35.9363 8.72298 35.9293 8.60224 35.9228L8.59874 35.0518C8.6139 35.0518 8.71073 35.0495 8.85713 35.0448C9.51857 35.0173 11.1471 34.908 11.5723 34.8724L11.6376 34.8618L11.6172 2.5242V2.5242ZM39.9729 35.9602C38.741 35.9602 36.6464 35.7545 35.078 35.7545C33.5264 35.7545 31.4208 35.9602 29.9054 35.9602C29.7765 35.9602 29.5491 35.9316 29.4242 35.9316V35.0787C29.7235 35.0717 31.0638 34.9495 31.4354 34.922C31.8723 34.8899 32.2759 34.8683 32.4555 34.8092L32.4649 32.1891C32.4812 26.6801 32.5133 11.1081 32.4625 4.06222C32.4567 3.31864 32.452 1.43397 32.452 1.16155C32.168 1.13349 31.7714 1.0955 31.4867 1.0575C31.1315 1.03821 29.6675 0.898495 29.4178 0.883881L29.4085 0.0309834C30.8609 0.0309834 33.0167 0.179465 34.7665 0.179465C36.4382 0.179465 38.706 0.0309834 40.4238 0.0309834L40.4203 0.920123C40.1479 0.938829 39.4853 0.980335 39.4631 0.982674C38.9626 1.03061 37.5622 1.18962 37.218 1.21417V3.95525C37.2169 10.2646 37.2105 26.7707 37.2075 32.3289V34.1305C37.2075 34.5555 37.2099 34.8098 37.214 34.8256C37.2227 34.8577 38.1005 34.9396 38.3029 34.9524C38.6902 34.998 40.2838 35.0676 40.3322 35.0793H40.4395L40.4383 35.9322C40.3339 35.9316 40.0796 35.9602 39.9729 35.9602ZM51.0313 11.9967C51.0313 11.9967 50.2381 16.3904 49.0937 22.5892C48.487 25.9383 47.2318 34.3129 47.1472 34.8653C47.8711 34.9741 49.2966 35.0904 49.6845 35.0775C49.7738 35.0775 49.9266 35.081 50.038 35.081L50.0368 35.9293C49.8517 35.9444 49.6661 35.952 49.4804 35.9521C48.1073 35.9234 47.1181 35.8182 45.6365 35.8182C45.2469 35.8182 43.1862 35.9258 42.4606 35.9509C42.1578 35.9643 41.7297 35.9316 41.6475 35.9351L41.6486 35.0945C41.7192 35.0945 41.8633 35.0647 41.9549 35.0623C42.6111 35.0325 43.6219 34.9308 44.4781 34.8192C44.5481 34.407 45.2883 30.2782 45.5234 28.8155C46.4327 23.9758 49.1135 7.80469 49.4489 5.62363C49.6822 3.75606 49.9046 1.88713 50.1161 0.0169523C50.8266 0.0292285 52.0526 0.00116851 52.0526 0.00116851C52.0526 0.00116851 54.4248 7.38847 54.8104 8.46993C55.1959 9.55199 62.4456 28.245 62.4456 28.245C62.4456 28.245 65.8484 20.1913 68.8809 11.5483C69.4951 9.79868 70.3006 7.51649 70.8938 5.66923C71.7617 2.96556 72.7166 0 72.7166 0H74.5825C74.5825 0 75.045 3.30169 75.2089 4.77132C75.6849 9.05042 78.8031 26.4363 79.8979 32.1541C80.1703 33.5845 80.3774 34.8232 80.3774 34.8232C80.6999 34.846 81.9598 34.9717 82.707 35.0331C82.8633 35.0466 83.2821 35.0694 83.3778 35.0694L83.3824 35.9316C83.3824 35.9316 83.0418 35.9486 82.8563 35.9486C81.1841 35.938 78.5797 35.7878 76.9722 35.7878C75.5426 35.7878 74.1672 35.9111 72.7376 35.9421C72.4938 35.9468 72.2488 35.9351 72.0003 35.9351V35.0834C72.0997 35.0765 72.1993 35.0738 72.2989 35.0752C72.9971 35.0419 74.8485 34.8595 75.0322 34.8513C75.0334 34.5386 74.9319 33.4548 74.7814 32.3487C74.6776 31.5677 74.5014 30.2331 74.3118 28.9179C73.9053 26.3603 72.0207 15.7649 71.4602 12.8233C71.368 12.341 71.3109 12.0703 71.3109 12.0703C71.3109 12.0703 65.4734 27.0794 64.2957 30.0367C64.182 30.3267 64.0997 30.5313 64.0723 30.5985C62.9466 33.4472 62.0034 35.9866 62.0034 35.9866L60.3422 35.976L51.2471 12.5427L51.0313 11.9967V11.9967ZM108.787 7.05409L108.305 7.05526L108.3 6.80272C108.25 6.17722 108.145 4.40713 108.012 2.91821C108 2.78551 107.979 2.68145 107.979 2.68145C107.69 2.6721 106.515 2.6341 106.496 2.61481C106.477 2.59727 105.541 2.58441 105.521 2.57448C105.511 2.5698 102.44 2.55109 99.2728 2.54876C97.1117 2.54642 94.9845 2.56045 93.6803 2.56045C93.3601 2.55928 92.2104 2.60429 92.2104 2.60429L92.2034 16.7329L101.255 16.7639C101.298 16.7639 103.653 16.6903 103.71 16.6914C103.852 16.6926 105.469 16.5985 105.53 16.5768C105.53 16.5768 105.554 16.4289 105.593 16.3208C105.724 15.4662 105.89 14.6536 105.931 14.0199C105.931 14.0199 105.973 13.7481 105.975 13.5645L106.49 13.5534C106.49 13.6195 106.517 13.782 106.514 14.0129C106.51 14.8646 106.448 16.6324 106.451 17.7922C106.453 19.4606 106.497 20.9676 106.508 21.7223C106.515 21.938 106.501 22.2817 106.501 22.2817H105.936C105.925 22.2016 105.916 22.1198 105.905 22.0327C105.818 21.1558 105.707 20.2813 105.573 19.4103C105.569 19.36 105.54 19.1829 105.528 19.0701C105.043 19.0443 104.558 19.0252 104.072 19.0128C103.895 19.0058 101.689 18.99 99.2051 18.9865C98.1879 18.9853 96.3605 19.0332 95.5859 19.0309C94.6777 19.0309 93.1787 19.0894 92.1999 19.1244L92.2104 31.9372L92.2489 33.5869L97.7446 33.6827L105.571 33.6757C105.607 33.6757 107.363 33.605 107.911 33.6161C108.027 33.6184 108.262 33.598 108.262 33.598C108.314 33.1835 108.378 32.3452 108.443 31.5449C108.448 31.4502 108.643 29.3253 108.643 28.7536L109.125 28.7477C109.125 29.2879 109.022 36 109.022 36C108.14 36 105.433 35.9977 102.09 35.9486C100.061 35.9176 97.8018 35.9199 95.5736 35.8872C93.7654 35.8609 91.9771 35.796 90.3503 35.7995C88.0318 35.8018 85.7617 35.9538 84.8797 35.955C84.6779 35.955 84.3215 35.9415 84.244 35.9415V35.098H84.4067C84.9503 35.0945 86.5485 34.9998 87.3826 34.8443C87.3826 34.6742 87.4386 32.5849 87.4386 32.5416L87.4339 4.82218C87.4339 3.54078 87.4112 1.40416 87.4112 1.21475C86.9393 1.15863 86.7719 1.1294 86.6727 1.10836C86.1729 1.03763 85.1848 0.951109 84.6563 0.913696C84.5239 0.915437 84.3915 0.905263 84.2609 0.883297C84.2609 0.883297 84.2585 0.0537803 84.2539 0.0420887C84.3734 0.0491036 84.6208 0.0303975 85.0641 0.0333204C85.9973 0.0374125 87.7139 0.175374 89.8125 0.177712C91.1308 0.178881 93.2574 0.114579 94.7809 0.094703C96.9537 0.094703 98.6032 0.073659 100.707 0.0607983C104.142 0.0374152 107.075 0.0128613 108.222 0.00701553C108.557 0.00584638 108.741 0.00409425 108.741 0.00409425C108.741 0.070736 108.739 0.146146 108.739 0.232079C108.739 0.498646 108.727 0.966891 108.732 1.54095C108.744 3.32683 108.787 6.13689 108.787 7.05409V7.05409Z" fill="#ADB5BD"/>
</svg>
